X:1
T:Where Is My Boy Tonight?
T:Robert Lowry, 1877
T:Where Is My Boy Tonight?
T:Public Domain
T:Public Domain
T:Public Domain
C:Robert Lowry, 1877
Z:Public Domain
%%score 1 ( 2 3 ) ( 4 5 )
L:1/8
M:6/8
K:G
V:1 treble 
V:2 treble 
V:3 treble 
V:4 bass 
V:5 bass 
V:1
 B>BB c2 B | B2 A G2 (G/G/) | G>GG c2 c | B3- B2 B | B>BB c2 B | d2 c B2 G | A>DD B2 A | G3- G2 || %8
w: 1.~Where is my wan- dering|boy to- night— The *|boy of my ten- derest|care, * The|boy that was once my|joy and light, The|child of my love and|prayer? *|
w: 2.~Once he was pure as|morn- ing dew, As~he *|knelt at his mo- ther’s|knee; * No|face was as bright, no|heart more true, And|none was so sweet as|he. *|
w: 3.~O could I see you|now, my boy, As *|fair as in old- en|time, * When|prat- tle and smile made|home a joy, And|life was a mer- ry|chime! *|
w: 4.~Go for my wan- dering|boy to- night; Go *|search for him where you|will; * But|bring him to me with|all his blight, And|tell him I love him|still. *|
"^Refrain" z | z6 | z6 | z6 | z6 | z6 | z6 | z6 | z6 |] %17
w: |||||||||
w: |||||||||
w: |||||||||
w: |||||||||
V:2
 z [DF][DF] z [CE][B,D] | z [CDF][CDF] z [B,DG][B,DG] | z [B,EG][B,EG] z [CEG][CEG] | %3
w: ~ ~ ~ ~|~ ~ ~ ~|~ ~ ~ ~|
 z (B,D GD)B, | z [B,D][B,D] z [CE][B,D] | z [CDF][CDF] z [B,DG][B,DG] | %6
w: ~ * * * ~|~ ~ ~ ~|~ ~ ~ ~|
 z [A,DF][A,DF] z [CDF][CDF] | [B,DG]3- [B,DG]2 || [DB] | [Ec][EG][EG] [EG]2 [_EA] | %10
w: ~ ~ ~ ~|~ *|O|where is my boy to-|
 [DB]3- [DB]2 [Dd] | [Fd][FA][FA] [EA]2 [EB] | [FA]3- [FA]2 [FA] | [GB]2 [Gd] [GB]2 [DG]/[DG]/ | %14
w: night? * O|where is my boy to-|night? * My|heart o’er- flows, for I|
 [DG][DA][GB] [Gc]2 [Gc] | [GB]>[FA]G [DA]2 [DG] | [DG]6 |] %17
w: love him, he knows; O|where is my boy to-||
V:3
 x6 | x6 | x6 | x6 | x6 | x6 | x6 | x5 || x | x6 | x6 | x6 | x6 | x6 | x6 | x2 G x3 | x6 |] %17
w: |||||||||||||||night?||
V:4
 [G,,G,]3 [G,,G,]3 | [D,,D,]3 [G,,G,]3 | E,3 C,3 | [G,,G,]3- [G,,G,]2 z | [G,,G,]3 [G,,G,]3 | %5
 [D,,D,]3 [G,,G,]3 | [D,,D,]3 [D,,D,]3 | (G,E,C, [G,,G,]2) || G, | %9
 [C,G,][C,G,][C,G,] [C,G,]2 [C,G,] | [G,,G,]3- [G,,G,]2 [G,B,] | [D,A,][D,D][D,D] [A,,^C]2 [A,,C] | %12
 [D,D]3- [D,D]2 [D,D] | [G,D]2 [G,B,] [G,D]2 [G,B,]/[G,B,]/ | [G,B,][F,A,][=F,D] [E,C]2 [C,E] | %15
 [D,D]>[D,C][D,B,] [D,C]2 [G,,B,] | [G,,B,]6 |] %17
V:5
 x6 | x6 | x6 | x6 | x6 | x6 | x6 | G,3- x2 || G, | x6 | x6 | x6 | x6 | x6 | x6 | x6 | x6 |] %17

